src/assets/emailicon.svg

<svg width="60" height="60" viewBox="0 0 60 60" fill="none" xmlns="http://www.w3.org/2000/svg">
<path d="M30 0C34.1429 0 38.0357 0.785714 41.6786 2.35714C45.3214 3.92857 48.5 6.07143 51.2143 8.78572C53.9286 11.5 56.0714 14.6786 57.6429 18.3214C59.2143 21.9643 60 25.8571 60 30C60 34.1429 59.2143 38.0357 57.6429 41.6786C56.0714 45.3214 53.9286 48.5 51.2143 51.2143C48.5 53.9286 45.3214 56.0714 41.6786 57.6429C38.0357 59.2143 34.1429 60 30 60C25.8571 60 21.9643 59.2143 18.3214 57.6429C14.6786 56.0714 11.5 53.9286 8.78572 51.2143C6.07143 48.5 3.92857 45.3214 2.35714 41.6786C0.785714 38.0357 0 34.1429 0 30C0 25.8571 0.785714 21.9643 2.35714 18.3214C3.92857 14.6786 6.07143 11.5 8.78572 8.78572C11.5 6.07143 14.6786 3.92857 18.3214 2.35714C21.9643 0.785714 25.8571 0 30 0ZM13.1429 37.7857L22.1429 31.3571L13.1429 24.9286V37.7857ZM46.8571 40.6429L35.8571 32.7857L30 37L24.0714 32.7857L13.1429 40.6429V45H46.8571V40.6429ZM46.8571 24.9286L37.8571 31.3571L46.8571 37.7857V24.9286ZM46.8571 15H13.1429V19.3571L30 31.3571L46.8571 19.3571V15Z" fill="#F2CDA7"/>
</svg>

<svg xmlns="http://www.w3.org/2000/svg" width="60" height="60" fill="none"><path fill="#F2CDA7" d="M30 0q6.215 0 11.679 2.357t9.535 6.429 6.429 9.535T60 30t-2.357 11.679-6.429 9.535q-4.072 4.072-9.535 6.429Q36.214 60 30 60t-11.679-2.357q-5.463-2.357-9.535-6.429T2.357 41.68Q0 36.214 0 30t2.357-11.679q2.357-5.463 6.429-9.535t9.535-6.429Q23.786 0 30 0M13.143 37.786l9-6.429-9-6.428zm33.714 2.857-11-7.857L30 37l-5.929-4.214-10.928 7.857V45h33.714zm0-15.714-9 6.428 9 6.429zm0-9.929H13.143v4.357l16.857 12 16.857-12z"/></svg>
